X:1
T:Nachtlied, 10.10.10 D
T:Nachtlied, 10.10.10 D
T:Henry Thomas Smart, 1872
T:Public Domain Courtesy of the Cyber Hymnal™
C:Henry Thomas Smart, 1872
Z:Public Domain
Z:Courtesy of the Cyber Hymnal™
%%score ( 1 2 ) ( 3 4 )
L:1/8
Q:1/4=117
M:4/4
K:D
V:1 treble 
V:2 treble 
V:3 bass 
V:4 bass 
V:1
 [DF]2 | [DF]4 [DF]4 | [DG]4 [DF]4 | [DB]2 [DA]2 D2 [DE]2 | ([DF]4 E4) | [EA]4 [^DG]2 [EG]2 | %6
 [EB]2 [^DA]2 [EG]2 [=DF]2 | [DE]4 [CG]4 | [DF]6 [DA]2 | [FA]4 [EA]4 | (A4 ^G2) [FA]2 | %11
 [EB]2 [E^G]2 [EB]2 [Ec]2 | [^Gd]4 [GB]4 | [Ae]4 (d2 c2) | [Bd]2 [Fc]2 [FB]2 [FA]2 | %15
 [EA]4 ([EB]2 [D^G]2) | [CA]8 | [Ad]4 [Ac]2 [EA]2 | B4 A4 | [DG]2 [B,G]2 [CG]2 [DG]2 | (e4 d4) | %21
 (c2 e2) [Gd]2 [GB]2 | [EA]2 [B,F]2 [B,G]2 [B,E]2 | [A,D]4 (E2 F2) | [A,D]6 |] %25
V:2
 x2 | x8 | x8 | x8 | x4 (C2 E2) | x8 | x8 | x8 | x8 | x8 | E6 x2 | x8 | x8 | x4 ^A4 | x8 | x8 | %16
 x8 | x8 | (F2 G2) (E2 D2) | x8 | G8 | G4 x4 | x8 | x4 C4 | x6 |] %25
V:3
 [D,A,]2 | [D,A,]4 [D,A,]4 | [D,B,]4 [D,A,]4 | [D,G,]2 [=C,F,]2 [B,,G,]2 [B,,G,]2 | A,8 | %5
 [F,=C]4 [B,,B,]2 [A,B,]2 | [G,B,]2 [F,B,]2 [E,B,]2 [B,,B,]2 | [G,,B,]4 (E,2 A,2) | %8
 [D,A,]6 [D,F,]2 | [D,A,]4 [C,A,]4 | D6 [A,D]2 | [^G,D]2 [B,D]2 [G,D]2 [F,A,]2 | [E,B,]4 [D,E]4 | %13
 [C,E]4 [F,E]4 | [B,,D]2 [C,E]2 [D,D]2 [D,D]2 | [E,C]4 (D2 B,2) | [A,,A,]8 | [A,F]4 [A,E]2 [A,C]2 | %18
 ([A,D]2 E2 C2) [F,A,]2 | [E,B,]2 [E,D]2 [E,C]2 [D,B,]2 | ([C,A,]4 [B,,B,]4) | %21
 (E2 C2) [B,,D]2 [B,,D]2 | [C,A,]2 [^D,A,]2 [E,G,]2 [G,,G,]2 | [A,,F,]4 (G,2 A,2) | [D,F,]6 |] %25
V:4
 x2 | x8 | x8 | x8 | (A,,6 G,2) | x8 | x8 | x4 A,,4 | x8 | x8 | (B,,4 B,2) x2 | x8 | x8 | x8 | x8 | %15
 x4 E,4 | x8 | x8 | x2 G,4 x2 | x8 | x8 | A,,4 x4 | x8 | x4 A,,4 | x6 |] %25

